!!!OTL: Dianhu wugeng han
!!!ARE: Asia, China,ÿHubei, Macheng
!! I, 454
!!!SCT: C1457
!!!YEM: Copyright 1995, estate of Helmut Schaffrath.
**kern
*ICvox
*Ivox
*M2/4
*k[f#]
*G:
{16b
16dd
8dd
8b
8b
=1
2dd
=2
8dd
16dd
16ee
16dd
16r
16dd
16b
=3
2a}
=4
{8dd
16a
16b
8dd
8dd
=5
8a
16b
16dd
8.g
16f#
=6
8e
16a
16b
8.g
16e
=7
2d}
==
!!!AGN: Xiaodiao. Suku
!!!ONB: ESAC (Essen Associative Code) Database: HUANG
!!!AMT: simple duple
!!!AIN: vox
!!!EED: Helmut Schaffrath
!!!EEV: 1.0
*-
